!!!!SEGMENT: Wil2019-In_tua_patientia.krn
!!!id: Wil2019
!!!AGN: Motet
!!!SCT: Zenck (1950)
!!!voices: 4
!!!COM: Adrian Willaert
!!!OTL: In tua patientia
**kern	**text	**kern	**text	**kern	**text	**kern	**text
*part4	*part4	*part3	*part3	*part2	*part2	*part1	*part1
*staff4	*staff4	*staff3	*staff3	*staff2	*staff2	*staff1	*staff1
*I"Bassus	*	*I"Tenor	*	*I"Altus	*	*I"Superius	*
*I'B	*	*I'T	*	*I'A	*	*I'S	*
*clefF4	*	*clefGv2	*	*clefG2	*	*clefG2	*
*k[b-]	*	*k[b-]	*	*k[b-]	*	*k[b-]	*
*F:	*	*F:	*	*F:	*	*F:	*
*M2/1	*	*M2/1	*	*M2/1	*	*M2/1	*
*met(C|)	*	*met(C|)	*	*met(C|)	*	*met(C|)	*
!!section: Prima pars: In tua patientia
!!!OMD: Prima pars: In tua patientia
=1	=1	=1	=1	=1	=1	=1	=1
0r	.	0F	In	0c	In	0r	.
=2	=2	=2	=2	=2	=2	=2	=2
0F	In	1A	tu-	1c	tu-	0f	In
.	.	1A	-a	1c	-a	.	.
=3	=3	=3	=3	=3	=3	=3	=3
1F	tu-	1.c	pa-	1.f	pa-	1a	tu-
1F	-a	.	.	.	.	1a	-a
.	.	2d	-ti-	2f	-ti-	.	.
=4	=4	=4	=4	=4	=4	=4	=4
1.C	pa-	1e	-en-	1g	-en-	1.cc	pa-
.	.	1e	-ti-	1g	-ti-	.	.
2C	-ti-	.	.	.	.	2cc	-ti-
=5	=5	=5	=5	=5	=5	=5	=5
1F	-en-	[0f	-a	0a	-a	1cc	-en-
1F	-ti-	.	.	.	.	1cc	-ti-
=6	=6	=6	=6	=6	=6	=6	=6
0BB-y	-a	1f]	.	0b-y	per	0dd	-a
.	.	1f	per	.	.	.	.
=7	=7	=7	=7	=7	=7	=7	=7
1D	per-	1.f	ma-	1.a	ma-	1dd	per-
2.F	-ma-	.	.	.	.	[1cc	-ma-
.	.	4e	.	4g	.	.	.
4G	.	4d	.	4f	.	.	.
=8	=8	=8	=8	=8	=8	=8	=8
2A	.	2c	.	2e	.	2cc]	.
2F	.	1d	.	1f	.	4b-y	.
.	.	.	.	.	.	4a	.
1G	.	.	.	.	.	1b-y	.
.	.	2B-y	.	2e	.	.	.
=9	=9	=9	=9	=9	=9	=9	=9
1F	-nens,	1c	.	1f	-nens,	[0a	-nens,
1r	.	1d	.	2r	.	.	.
.	.	.	.	[2f	per-	.	.
=10	=10	=10	=10	=10	=10	=10	=10
1.F	pos-	1c	-nens,	2f]	.	0a]	.
.	.	.	.	4e	.	.	.
.	.	.	.	4d	.	.	.
.	.	1r	.	2.c	-ma-	.	.
2F	-se-	.	.	.	.	.	.
.	.	.	.	4B-y	.	.	.
=11	=11	=11	=11	=11	=11	=11	=11
1F	-di-	1.c	pos-	2A	.	0r	.
.	.	.	.	4G	.	.	.
.	.	.	.	4F	.	.	.
1C	-sti	.	.	1G	.	.	.
.	.	2c	-se-	.	.	.	.
=12	=12	=12	=12	=12	=12	=12	=12
1F	a-	1c	-di-	1A	-nens,	0r	.
2F	-ni-	1A	-sti	1r	.	.	.
[2D	-mam	.	.	.	.	.	.
=13	=13	=13	=13	=13	=13	=13	=13
4D]	.	1d	a-	1.f	pos-	0r	.
4E	.	.	.	.	.	.	.
4F	.	.	.	.	.	.	.
4G	.	.	.	.	.	.	.
2A	.	2c	-ni-	.	.	.	.
[2B-y	tu-	[2d	-mam	2f	-se-	.	.
=14	=14	=14	=14	=14	=14	=14	=14
4B-]	.	4d]	.	1f	-di-	0r	.
4A	.	4c	.	.	.	.	.
2F	.	1c	tu-	.	.	.	.
1G	.	.	.	1d	-sti	.	.
.	.	2B-y	.	.	.	.	.
=15	=15	=15	=15	=15	=15	=15	=15
1F	-am,	2.c	-am,	1a	a-	1.cc	pos-
.	.	4d	.	.	.	.	.
1r	.	2e	.	2g	-ni-	.	.
.	.	[2f	a-	[2a	-mam	2cc	-se-
=16	=16	=16	=16	=16	=16	=16	=16
1r	.	4f]	.	4a]	.	1cc	-di-
.	.	4e	.	4g	.	.	.
.	.	2c	-ni-	2g	tu-	.	.
2r	.	2.d	-mam	2.f	.	1a	-sti
[2D	a-	.	.	.	.	.	.
.	.	4e	.	4g	.	.	.
=17	=17	=17	=17	=17	=17	=17	=17
4D]	.	4f	.	1.a	.	1dd	a-
4E	.	4g	.	.	.	.	.
4F	.	1f	.	.	.	.	.
4G	.	.	.	.	.	.	.
2A	.	.	.	.	.	2cc	-ni-
2B-y	-ni-	4e	.	4g	.	[2dd	-mam
.	.	4d	.	4f	.	.	.
=18	=18	=18	=18	=18	=18	=18	=18
2A	-mam	2e	.	1a	.	4dd]	.
.	.	.	.	.	.	4cc	.
2F	.	2f	.	.	.	1cc	tu-
1G	tu-	1d	tu-	2.g	.	.	.
.	.	.	.	.	.	2bni	.
.	.	.	.	4f	.	.	.
=19	=19	=19	=19	=19	=19	=19	=19
2.A	-am,	1c	-am,	4e	.	1cc	-am,
.	.	.	.	4d	.	.	.
.	.	.	.	1f	.	.	.
4B-y	.	.	.	.	.	.	.
2c	.	2r	.	.	.	1g	Lu-
2C	Lu-	2c	Lu-	2e	.	.	.
=20	=20	=20	=20	=20	=20	=20	=20
2F	-ci-	2A	-ci-	2c	-am,	1a	-ci-
2D	-a	1d	-a	2f	Lu-	.	.
1G	spon-	.	.	2d	-ci-	1b-y	-a
.	.	4c	.	2e	-a	.	.
.	.	4B-y	.	.	.	.	.
=21	=21	=21	=21	=21	=21	=21	=21
2F	-sa	2c	.	1.f	spon-	2.a	spon-
2.F	Chri-	2d	spon-	.	.	.	.
.	.	.	.	.	.	4g	.
.	.	2.c	-sa	.	.	2a	.
4E	.	.	.	.	.	.	.
2C	.	.	.	2e	-sa	[2g	-sa
.	.	4B-y	.	.	.	.	.
=22	=22	=22	=22	=22	=22	=22	=22
2D	.	2A	.	1d	Chri-	4g]	.
.	.	.	.	.	.	4f	.
2BB-y	.	2B-y	.	.	.	1f	Chri-
1C	-sti:	1G	Chri-	[1c	-sti:	.	.
.	.	.	.	.	.	2e	.
=23	=23	=23	=23	=23	=23	=23	=23
2r	.	1.F	-sti,	1c]	.	1f	-sti:
2F	quae	.	.	.	.	.	.
2D	in	.	.	2r	.	1r	.
[2F	mun-	[2A	spon-	2c	quae	.	.
=24	=24	=24	=24	=24	=24	=24	=24
2F]	.	4A]	.	2d	.	1.a	quae
.	.	4B-y	.	.	.	.	.
2C	-do	2c	.	2e	in	.	.
1D	e-	2F	-sa	1f	mun-	.	.
.	.	[2f	Chri-	.	.	2a	in
=25	=25	=25	=25	=25	=25	=25	=25
1C	-rant	2f]	.	1g	-do	1cc	mun-
.	.	2e	.	.	.	.	.
1F	de-	2f	-sti:	1a	e-	1cc	-do
.	.	2f	quae	.	.	.	.
=26	=26	=26	=26	=26	=26	=26	=26
2BB-y	-spe-	2d	in	1f	-rant	1dd	e-
1B-y	-xi-	1f	mun-	.	.	.	.
.	.	.	.	2r	.	1cc	-rant
2A	.	2c	-do	[2f	de-	.	.
=27	=27	=27	=27	=27	=27	=27	=27
1B-y	-sti,	1d	e-	2f]	.	1ff	de-
.	.	.	.	2d	-spe-	.	.
1r	.	2c	-rant	2.g	-xi-	2ee	-spe-
.	.	[2B-y	de-	.	.	[2dd	-xi-
.	.	.	.	4f	.	.	.
=28	=28	=28	=28	=28	=28	=28	=28
0r	.	2B-]	.	4d	.	4dd]	.
.	.	.	.	4e	.	4cc	.
.	.	2F	-spe-	1f	.	2a	.
.	.	1G	-xi-	.	.	1b-y	.
.	.	.	.	2e	.	.	.
=29	=29	=29	=29	=29	=29	=29	=29
1.D	quae	0F	-sti,	2f	-sti,	[0a	-sti,
.	.	.	.	2f	quae	.	.
.	.	.	.	2d	in	.	.
2D	in	.	.	[2f	mun-	.	.
=30	=30	=30	=30	=30	=30	=30	=30
1F	mun-	2r	.	4f]	.	0a]	.
.	.	.	.	4e	.	.	.
.	.	1f	de-	2c	.	.	.
1F	-do	.	.	2d	-do	.	.
.	.	4e	.	[2c	e-	.	.
.	.	4d	.	.	.	.	.
=31	=31	=31	=31	=31	=31	=31	=31
1G	e-	4e	.	2c]	.	0r	.
.	.	4d	.	.	.	.	.
.	.	1d	.	2B-y	.	.	.
1F	-rant	.	.	2A	-rant	.	.
.	.	2c	-spe-	2a	de-	.	.
=32	=32	=32	=32	=32	=32	=32	=32
1B-y	de-	1d	-xi-	2g	-spe-	0r	.
.	.	.	.	1f	-xi-	.	.
2A	-spe-	2c	.	.	.	.	.
[2G	-xi-	[2B-y	.	4e	.	.	.
.	.	.	.	4d	.	.	.
=33	=33	=33	=33	=33	=33	=33	=33
4G]	.	4B-]	.	4e	.	0r	.
4F	.	4A	.	4d	.	.	.
2D	.	1A	.	1d	.	.	.
1E	.	.	.	.	.	.	.
.	.	2G	.	2c#i	.	.	.
=34	=34	=34	=34	=34	=34	=34	=34
1D	-sti,	1A	-sti,	2d	-sti,	2r	.
.	.	.	.	1a	de-	1ff	de
1d	de-	1r	.	.	.	.	.
.	.	.	.	4g	.	4ee	spe-
.	.	.	.	4f	.	4dd	.
=35	=35	=35	=35	=35	=35	=35	=35
2c	-spe-	1r	.	2.g	.	4ee	.
.	.	.	.	.	.	4dd	.
1B-y	-xi-	.	.	.	.	1dd	.
.	.	.	.	4f	.	.	.
.	.	2r	.	2g	.	.	.
2A	.	[2f	de-	2a	-spe-	2cc	-xi-
=36	=36	=36	=36	=36	=36	=36	=36
1B-y	-sti,	2f]	.	1d	-xi-	1dd	-sti,
.	.	4e	.	.	.	.	.
.	.	4d	.	.	.	.	.
2r	.	2e	.	2.g	.	2cc	de
2B-y	et	[2d	-spe-	.	.	[2b-y	spe-
.	.	.	.	4f	.	.	.
=37	=37	=37	=37	=37	=37	=37	=37
2G	i-	2d]	.	2g	.	4b-]	.
.	.	.	.	.	.	4a	.
2A	-de-	2c	.	1f	.	1a	-xi-
1B-y	-o	1d	-xi-	.	.	.	.
.	.	.	.	4e	.	2g	.
.	.	.	.	4d	.	.	.
=38	=38	=38	=38	=38	=38	=38	=38
2.A	in	1e	-sti,	1c	-sti,	0a	-sti,
4B-y	.	.	.	.	.	.	.
2c	.	1r	.	2r	.	.	.
[2d	ter-	.	.	2f	et	.	.
=39	=39	=39	=39	=39	=39	=39	=39
2d]	.	0r	.	2d	i-	2r	.
2c#i	.	.	.	2e	-de-	2a	et
1d	-ris	.	.	1f	-o	2a	i-
.	.	.	.	.	.	2b-y	-de-
=40	=40	=40	=40	=40	=40	=40	=40
1.c	no-	1r	.	2.e	in	2cc	-o
.	.	.	.	.	.	2cc	in
.	.	.	.	4f	.	.	.
.	.	2r	.	2g	.	1cc	ter-
2F	-men	2f	et	[2a	ter-	.	.
=41	=41	=41	=41	=41	=41	=41	=41
1G	tu-	2d	i-	2a]	.	1b-y	-ris
.	.	2e	-de-	2g	.	.	.
1F	-um	1f	-o	1a	-ris	2.cc	no-
.	.	.	.	.	.	4dd	.
=42	=42	=42	=42	=42	=42	=42	=42
2.G	co-	2B-y	in	1.g	no-	2ee-i	.
.	.	2.d	ter-	.	.	2.dd	-men
4A	.	.	.	.	.	.	.
2B-y	.	.	.	.	.	.	.
.	.	4e	.	.	.	4cc	.
2A	-li-	2f	.	2c	-men	[2cc	tu-
=43	=43	=43	=43	=43	=43	=43	=43
2G	-tur,	2g	-ris	1d	tu-	2cc]	.
2G	no-	2g	no-	.	.	2b-y	.
2A	-men	2e	-men	1c	-um	4cc	-um
.	.	.	.	.	.	4b-y	.
2F	tu-	[2f	tu-	.	.	4a	.
.	.	.	.	.	.	4g	.
=44	=44	=44	=44	=44	=44	=44	=44
2B-y	-um	4f]	.	2.d	co-	2f	.
.	.	4e	.	.	.	.	.
1B-y	co-	1d	.	.	.	1b-y	co-
.	.	.	.	4e	.	.	.
.	.	.	.	2f	.	.	.
2c	.	[2c	.	2e	-li-	2a	-li-
=45	=45	=45	=45	=45	=45	=45	=45
1G	-li-	2c]	.	1d	-tur,	1.g	-tur,
.	.	2B-y	.	.	.	.	.
1C	-tur	4c	-um	2r	.	.	.
.	.	4B-y	.	.	.	.	.
.	.	4A	.	2c	no-	2cc	no-
.	.	4G	.	.	.	.	.
=46	=46	=46	=46	=46	=46	=46	=46
2r	.	2F	.	2c	-men	2a	-men
1BB-y	et	2.d	co-	1f	tu-	2.b-y	tu-
.	.	4c	.	.	.	4a	.
2C	in	2c	.	2e	-um	[2g	.
=47	=47	=47	=47	=47	=47	=47	=47
1D	cae-	4B-y	-li-	2d	co-	4g]	.
.	.	4A	.	.	.	4f	-um
.	.	4G	.	2B-y	-li-	1f	co-
.	.	4F	.	.	.	.	.
2C	-lis	1G	.	1c	-tur	.	.
2C	co-	.	.	.	.	2e	-li-
=48	=48	=48	=48	=48	=48	=48	=48
2.F	-ro-	1F	-tur	1c	et	0f	-tur
4E	.	.	.	.	.	.	.
4D	.	2r	.	2.d	in	.	.
4C	.	.	.	.	.	.	.
[2D	.	[2F	et	.	.	.	.
.	.	.	.	4e	.	.	.
=49	=49	=49	=49	=49	=49	=49	=49
2D]	.	2F]	.	2f	.	0r	.
1C	-na	2G	in	1e	cae-	.	.
.	.	1A	cae-	.	.	.	.
[2c	pro-	.	.	4d	.	.	.
.	.	.	.	4c	.	.	.
=50	=50	=50	=50	=50	=50	=50	=50
2c]	.	2G	-lis	2.d	.	0r	.
2B-y	-pri-	2G	co-	.	.	.	.
.	.	.	.	4e	.	.	.
2A	-i	2.c	-ro-	4f	.	.	.
.	.	.	.	4e	.	.	.
[2F	san-	.	.	2f	.	.	.
.	.	4B-y	.	.	.	.	.
=51	=51	=51	=51	=51	=51	=51	=51
4F]	.	4A	.	1c	-lis.	0r	.
4E	.	4G	.	.	.	.	.
4F	.	2A	.	.	.	.	.
4G	.	.	.	.	.	.	.
2A	.	2F	-na	1r	.	.	.
2B-y	.	[2f	pro-	.	.	.	.
=52	=52	=52	=52	=52	=52	=52	=52
1G	-gui-	2f]	.	0r	.	0r	.
.	.	2e	-pri-	.	.	.	.
[1F	-nis	2d	-i	.	.	.	.
.	.	[2c	san-	.	.	.	.
=53	=53	=53	=53	=53	=53	=53	=53
2F]	.	4c]	.	0r	.	0r	.
.	.	4B-y	.	.	.	.	.
4E	.	4c	.	.	.	.	.
4D	.	4d	.	.	.	.	.
2C	.	2e	.	.	.	.	.
[2D	de-	2f	-gui-	.	.	.	.
=54	=54	=54	=54	=54	=54	=54	=54
4D]	.	2d	-nis	0r	.	1r	.
4E	.	.	.	.	.	.	.
4F	.	1c	de-	.	.	.	.
4G	.	.	.	.	.	.	.
2A	.	.	.	.	.	2r	.
2c	-co-	4B-y	.	.	.	2a	cum
.	.	4A	.	.	.	.	.
=55	=55	=55	=55	=55	=55	=55	=55
2B-y	-ra-	2G	.	0r	.	2b-y	re-
1A	.	2A	-co-	.	.	2cc	-li-
.	.	1B-y	-ra-	.	.	1dd	-quis
2G	.	.	.	.	.	.	.
=56	=56	=56	=56	=56	=56	=56	=56
2.A	.	1A	-tur,	2r	.	2.cc	Chri-
.	.	.	.	2e	cum	.	.
4G	.	.	.	.	.	4b-y	.
2F	.	1r	.	2f	re-	2a	.
2E	.	.	.	2g	-li-	[2g	-sti
=57	=57	=57	=57	=57	=57	=57	=57
1D	.	1.d	cum	1a	-quis	2g]	.
.	.	.	.	.	.	2f	mar-
1G	-tur	.	.	2.g	Chri-	2.b-y	-ty-
.	.	2B-y	re-	.	.	.	.
.	.	.	.	4f	.	4a	.
=58	=58	=58	=58	=58	=58	=58	=58
0r	.	2c	.	2e	.	2g	.
.	.	2d	-li-	1d	-sti	2f	-ri-
.	.	1A	-quis,	.	.	2e	-bus,
.	.	.	.	2c	mar-	[2a	cum
=59	=59	=59	=59	=59	=59	=59	=59
2r	.	0r	.	2.f	-ty-	4a]	.
.	.	.	.	.	.	4b-y	.
2A	cum	.	.	.	.	2cc	.
.	.	.	.	4e	.	.	.
2B-y	re-	.	.	2d	.	2b-y	.
2c	-li-	.	.	2c	.	[2a	re-
=60	=60	=60	=60	=60	=60	=60	=60
1d	-quis	1r	.	1B-y	-ri-	2a]	.
.	.	.	.	.	.	2g	-li-
2.c	Chri-	2r	.	2A	-bus,	2.a	-quis
.	.	[2c	cum	[2e	cum	.	.
4B-y	.	.	.	.	.	4g	.
=61	=61	=61	=61	=61	=61	=61	=61
2A	.	2c]	.	4e]	.	2a	.
.	.	.	.	4f	.	.	.
1G	-sti	2d	re-	1g	.	1b-y	Chri-
.	.	2e	.	.	.	.	.
2F	mar-	[2f	.	2c	re-	2a	-sti
=62	=62	=62	=62	=62	=62	=62	=62
2.B-y	-ty-	2f]	.	3.d	.	2f	mar-
.	.	2d	-li-	6e	-li-	1b-y	-ty-
.	.	.	.	3f	.	.	.
4A	.	.	.	.	.	.	.
2G	.	2e	-quis	2g	-quis	.	.
2F	.	2f	Chri-	[2c	Chri-	2a	.
=63	=63	=63	=63	=63	=63	=63	=63
2E	.	2g	-sti	4c]	.	2g	.
.	.	.	.	4B-y	.	.	.
1F	.	2c	mar-	4A	.	2.cc	.
.	.	.	.	4G	.	.	.
.	.	2.f	-ty-	2A	-sti	.	.
.	.	.	.	.	.	4a	.
2BB-y	.	.	.	2f	mar-	[2b-y	.
.	.	4e	.	.	.	.	.
=64	=64	=64	=64	=64	=64	=64	=64
1F	.	2d	.	2f	-ty-	4b-]	.
.	.	.	.	.	.	4a	.
.	.	2c	.	2f	-ri-	1a	.
1G	-ri-	1B-y	-ri-	2.d	-bus,	.	.
.	.	.	.	.	.	2g	-ri-
.	.	.	.	4e	.	.	.
=65	=65	=65	=65	=65	=65	=65	=65
1D	-bus,	0A	-bus,	2f	.	0a	-bus,
.	.	.	.	1d	mar-	.	.
[1F	co-	.	.	.	.	.	.
.	.	.	.	4c	-ty-	.	.
.	.	.	.	4B-y	.	.	.
=66	=66	=66	=66	=66	=66	=66	=66
2F]	.	1.c	co-	2A	.	0r	.
2E	-ru-	.	.	2G	-ri-	.	.
1F	-scan-	.	.	2A	-bus,	.	.
.	.	2c	-ru-	2a	co-	.	.
=67	=67	=67	=67	=67	=67	=67	=67
2C	-ti	1c	-scan-	2g	-ru-	0r	.
2.F	lu-	.	.	1a	-scan-	.	.
.	.	1A	-ti	.	.	.	.
4G	.	.	.	.	.	.	.
[2A	.	.	.	4g	.	.	.
.	.	.	.	4f	.	.	.
=68	=68	=68	=68	=68	=68	=68	=68
2A]	.	1c	lu-	1e	-ti,	0r	.
4G	.	.	.	.	.	.	.
4F	.	.	.	.	.	.	.
2E	.	2c	-ce-	1r	.	.	.
2D	-ce-	2B-y	-re	.	.	.	.
=69	=69	=69	=69	=69	=69	=69	=69
1F	-re	2.A	ful-	2r	.	1r	.
.	.	.	.	1f	co-	.	.
.	.	8G	.	.	.	.	.
.	.	8F	.	.	.	.	.
1C	ful-	1G	.	.	.	[1cc	co-
.	.	.	.	2e	-ru-	.	.
=70	=70	=70	=70	=70	=70	=70	=70
0F	-ges,	[0A	-ges,	1f	-scan-	2cc]	.
.	.	.	.	.	.	2cc	-ru-
.	.	.	.	2c	-ti	1cc	-scan-
.	.	.	.	[2f	lu-	.	.
=71	=71	=71	=71	=71	=71	=71	=71
1.F	co-	0A]	.	4f]	.	1f	-ti
.	.	.	.	4g	.	.	.
.	.	.	.	1a	.	.	.
.	.	.	.	.	.	1cc	lu-
2F	-ru-	.	.	4g	-ce-	.	.
.	.	.	.	4f	.	.	.
=72	=72	=72	=72	=72	=72	=72	=72
1G	-scan-	0r	.	2e	-re	2cc	-ce-
.	.	.	.	2.d	ful-	2b-y	-re
1F	-ti	.	.	.	.	2.a	ful-
.	.	.	.	4c	.	.	.
.	.	.	.	[2f	.	.	.
.	.	.	.	.	.	8g	.
.	.	.	.	.	.	8f	.
=73	=73	=73	=73	=73	=73	=73	=73
1C	lu-	1.c	co-	2f]	.	1g	.
.	.	.	.	2e	.	.	.
1F	-ce-	.	.	2f	-ges,	2a	-ges,
.	.	2c	-ru-	2a	lu-	[2cc	lu-
=74	=74	=74	=74	=74	=74	=74	=74
2E	-re	1c	-scan-	2g	-ce-	4cc]	.
.	.	.	.	.	.	4b-y	.
1F	ful-	.	.	1c	-re	1a	.
.	.	1F	-ti	.	.	.	.
4E	.	.	.	2f	ful-	4g	.
4D	.	.	.	.	.	4f	.
=75	=75	=75	=75	=75	=75	=75	=75
2C	.	1c	lu-	2e	.	2g	.
1F	.	.	.	2.f	.	1a	-ce-
.	.	2c	-ce-	.	.	.	.
.	.	.	.	4e	.	.	.
2BB-y	.	2B-y	-re	[2d	.	[2g	-re
=76	=76	=76	=76	=76	=76	=76	=76
1D	.	2A	ful-	4d]	.	4g]	.
.	.	.	.	4c	.	4f	.
.	.	4G	.	4A	.	1f	ful-
.	.	4F	.	4B-y	.	.	.
1C	.	1G	.	1c	.	.	.
.	.	.	.	.	.	2e	.
=77	=77	=77	=77	=77	=77	=77	=77
00Fl	-ges.	00Fl	-ges.	00cl	-ges.	00fl	-ges.
==	==	==	==	==	==	==	==
*-	*-	*-	*-	*-	*-	*-	*-
!!!system-decoration: [*]
!!!RDF**kern: i = editorial accidental
!!!RDF**kern: l = terminal long
!!!ENC: Benjamin Ory
!!!END: 2020/12/17
!!!EED: Benjamin Ory
!!!EEV: 2021/04/30
!!!YEC: Copyright 2021 Benjamin Ory, All Rights Reserved
!!!ONB: Translated from MusicXML on 2021/04/30
